X:9233
T:Lancers Sett of Quadrils No.4. TLY.054
T:If The Life Of A Man
M:6/8
L:1/8
S:Wm.Tildesley,Swinton,Lancs.1860s.
R:Quadrlle
O:England.
A:Lancashire.
N:DC at en
H:1860.
Z:Taz Tarry.
K:D
F/-G/|A>BA A>BA|d2A A2 F/2G/2|A>BA A>BA e2 A AFA| A>BA A>BA|!
 d2A e2A| f>ed A>dc| d2 D D3||f>ed f>ed| e2A A3|!
 f>ed f>ed| g2e e3| f>ed f>ed| gfe a2 g| f>ed A>dc| d2 D D3||
